X:1
T:Title
%%score { ( 1 4 5 ) | ( 2 3 ) }
L:1/8
M:3/4
K:Eb
V:1 treble nm="Grand Piano"
V:4 treble 
V:5 treble 
V:2 bass 
V:3 bass 
V:1
 z2 z[Q:1/4=86] G _G=G | [CA]3 G G>F | [G,E]3 E DE | [A,F]3 C [A,D]>C | [G,B,]3 G _G=G | %5
 [CB]3 B [CA]G | [A,C]3 E[K:bass] [_G,D]C | [G,B,][K:treble]G [B,G]3 F | %8
[M:7/16] [G,E]/-[G,E]/-[G,E]/-[G,E]-<[G,E] |[M:3/8] BB>c |[M:3/4] A4 .[DA]2 | [EG]3 B e>[Gc] | %12
 [Ad]4 z2 | [EB]4 z2 | A4 z2 | [EG]3 [CAe] [D_Gd][EGc] | [EGB][B,EG] [B,DG]3 [A,B,F] | %17
[M:3/8] [G,B,E]3 |] %18
V:2
 z2 z B, =A,B, | E,,B,, z B, B,>A, | z2 E,2 z2 | B,,,B,, z A, z z/ A,/ | E,,B,, z B, =A,B, | %5
 C,,C, z C z B, | F,,C, z A, z _G, | z B, z2 z A, |[M:7/16] E,B,,E,,3/2 | %9
[M:3/8] [G,B,E][G,B,E]>[_G,B,E] |[M:3/4] .B,2 z2 z2 | z C B,[K:treble]G G>[K:bass][E,B,] | %12
 [F,B,]B,, z A D,[B,,A,] | [E,G,]B,, E,[G,B,E] [G,B,E]>[_G,B,E] | .B,2 z2 z2 | .E,2 z2 z2 | %16
 B,,B,, B,,3 B,, |[M:3/8] E,3 |] %18
V:3
 x6 | z2 E,2 [B,,D,]2 | E,,B,, z G, F,G, | z2 D,2 B,,2 | z2 E,2 z2 | z2 E,2 C,2 | z2 F,2 A,,2 | %7
 B,,2 B,,4 |[M:7/16] x7/2 |[M:3/8] x3 |[M:3/4] [F,D]3 D, B,,B,, | E,4[K:treble] z2[K:bass] | %12
 z2 F,2 z2 | x6 | [F,D]3 D, B,,[B,,F,] | C,-[C,-G,] [C,C]A,, =A,,A,, | x6 |[M:3/8] x3 |] %18
V:4
 x6 | x6 | x6 | x6 | x6 | x6 | x4[K:bass] x2 | x[K:treble] x5 |[M:7/16] x7/2 |[M:3/8] x3 | %10
[M:3/4] z C B,[FA] B,-[B,DB] | .B,2 z2 z2 | z B, z c [B,FA][Dc] | z G, G,B B>c | %14
 z C z [FA] [B,DA][DB] | x6 | x6 |[M:3/8] x3 |] %18
V:5
 x6 | x6 | x6 | x6 | x6 | x6 | x4[K:bass] x2 | x[K:treble] x5 |[M:7/16] x7/2 |[M:3/8] x3 | %10
[M:3/4] x6 | x6 | z2 B,2 z2 | x6 | z2 B,2 z2 | x6 | x6 |[M:3/8] x3 |] %18

